img/0-4.svg

<svg width="83" height="48" viewBox="0 0 83 48" fill="none" xmlns="http://www.w3.org/2000/svg">
<rect width="83" height="48" fill="#FBFBFB"/>
<path d="M48.6294 27.1102L58.4899 14H61.8512V27.1102H64.5429V29.8577H61.8512V34H58.992V29.8577H48.6294V27.1102ZM58.992 27.1102V17.4589L51.7396 27.1102H58.992Z" fill="black"/>
<path d="M41.5857 29.8298H45.7558V34H41.5857V29.8298Z" fill="black"/>
<path d="M36.7183 31.1409C36.7183 31.5314 36.6439 31.9033 36.4951 32.2566C36.3463 32.6007 36.1418 32.9028 35.8814 33.1632C35.6211 33.4235 35.3143 33.6281 34.9609 33.7768C34.6169 33.9256 34.2497 34 33.8591 34H23.8591C23.4686 34 23.0967 33.9256 22.7434 33.7768C22.3993 33.6281 22.0972 33.4235 21.8368 33.1632C21.5765 32.9028 21.3719 32.6007 21.2232 32.2566C21.0744 31.9033 21 31.5314 21 31.1409V16.8591C21 16.4686 21.0744 16.1013 21.2232 15.7573C21.3719 15.404 21.5765 15.1018 21.8368 14.8508C22.0972 14.5904 22.3993 14.3859 22.7434 14.2371C23.0967 14.079 23.4686 14 23.8591 14H33.8591C34.2497 14 34.6169 14.079 34.9609 14.2371C35.3143 14.3859 35.6211 14.5904 35.8814 14.8508C36.1418 15.1018 36.3463 15.404 36.4951 15.7573C36.6439 16.1013 36.7183 16.4686 36.7183 16.8591V31.1409ZM23.8591 16.8591V31.1409H33.8591V16.8591H23.8591Z" fill="black"/>
<path fill-rule="evenodd" clip-rule="evenodd" d="M36.779 17.1178L24.8253 33.3749L22.5618 31.7105L34.5155 15.4535L36.779 17.1178Z" fill="black"/>
</svg>

<?xml version="1.0" encoding="UTF-8"?>
<svg id="Layer_1" xmlns="http://www.w3.org/2000/svg" version="1.1" viewBox="0 0 83 48">
  <!-- Generator: Adobe Illustrator 29.5.1, SVG Export Plug-In . SVG Version: 2.1.0 Build 141)  -->
  <defs>
    <style>
      .st0 {
        fill-rule: evenodd;
      }

      .st0, .st1 {
        fill: #121212;
      }

      .st2 {
        fill: #f7f7f7;
      }
    </style>
  </defs>
  <rect class="st2" y="0" width="83" height="48"/>
  <g>
    <path class="st1" d="M48.63,27.11l9.86-13.11h3.36v13.11h2.69v2.75h-2.69v4.14h-2.86v-4.14h-10.36v-2.75ZM58.99,27.11v-9.65l-7.25,9.65h7.25Z"/>
    <path class="st1" d="M41.59,29.83h4.17v4.17h-4.17v-4.17Z"/>
    <path class="st1" d="M36.72,31.14c0,.39-.07.76-.22,1.12-.15.34-.35.65-.61.91s-.57.46-.92.61c-.34.15-.71.22-1.1.22h-10c-.39,0-.76-.07-1.12-.22-.34-.15-.65-.35-.91-.61-.26-.26-.46-.56-.61-.91-.15-.35-.22-.73-.22-1.12v-14.28c0-.39.07-.76.22-1.1.15-.35.35-.66.61-.91.26-.26.56-.46.91-.61.35-.16.73-.24,1.12-.24h10c.39,0,.76.08,1.1.24.35.15.66.35.92.61.26.25.46.55.61.91.15.34.22.71.22,1.1v14.28ZM23.86,16.86v14.28h10v-14.28h-10Z"/>
    <path class="st0" d="M36.78,17.12l-11.95,16.26-2.26-1.66,11.95-16.26,2.26,1.66Z"/>
  </g>
</svg>
